packages/foundations/assets/icons/functional/images/transportation/bike_24_inverted.svg

<svg width="24" height="24" viewBox="0 0 24 24" fill="none" xmlns="http://www.w3.org/2000/svg">
<g clip-path="url(#clip0_2214_6644)">
<path fill-rule="evenodd" clip-rule="evenodd" d="M17.8426 5.76264C17.8999 6.19217 17.6673 6.63003 17.1124 6.71758C16.8233 6.75799 16.5335 6.79648 16.243 6.83305L17.6673 11.2892C17.7769 11.2798 17.8879 11.275 18 11.275C20.1263 11.275 21.85 12.9988 21.85 15.125C21.85 17.2513 20.1263 18.975 18 18.975C15.8737 18.975 14.15 17.2513 14.15 15.125C14.15 13.7115 14.9118 12.4759 16.0472 11.8063L15.761 10.9089L12.3934 14.653C12.2868 14.7715 12.1556 14.8654 12.0091 14.9282C11.4879 15.1516 10.8899 14.9411 10.6179 14.4581L9.61901 12.1458L9.06827 12.7991C9.55887 13.4453 9.85002 14.2512 9.85002 15.125C9.85002 17.2513 8.12632 18.975 6.00002 18.975C3.87373 18.975 2.15002 17.2513 2.15002 15.125C2.15002 12.9988 3.87373 11.275 6.00002 11.275C6.63727 11.275 7.23836 11.4299 7.76772 11.7039L8.86901 10.3958L7.72501 7.72495L7.00002 7.72505C6.53058 7.72505 6.15002 7.34449 6.15002 6.87505C6.15002 6.44172 6.48373 6.02505 7.00002 6.02505C7.83323 6.02293 8.66656 6.02293 9.50002 6.02505C9.96947 6.02505 10.35 6.4056 10.35 6.87505C10.35 7.30838 10.0172 7.68105 9.57301 7.71995C9.80231 8.26139 10.0376 8.81102 10.279 9.36883L14.75 7.74295L14.3164 6.38361C14.1661 5.91314 14.4419 5.3676 15.0137 5.28251C15.6377 5.19727 16.2624 5.11394 16.8876 5.03251C17.3529 4.97043 17.7805 5.29732 17.8426 5.76264ZM6.00002 12.975C4.81261 12.975 3.85002 13.9376 3.85002 15.125C3.85002 16.3125 4.81261 17.275 6.00002 17.275C7.18744 17.275 8.15002 16.3125 8.15002 15.125C8.15002 14.7784 8.06797 14.4508 7.92221 14.1608L6.6502 15.6726C6.32123 16.0524 5.78167 16.0524 5.45251 15.7752C5.12335 15.498 5.01679 14.9548 5.34985 14.5775C5.77156 14.0722 6.19518 13.5683 6.6207 13.066C6.42418 13.0068 6.21582 12.975 6.00002 12.975ZM18.2088 12.9851L18.8097 14.8665C18.9643 15.3411 18.6714 15.8029 18.2586 15.9348C17.8458 16.0666 17.3572 15.8651 17.1903 15.3836C16.9878 14.7575 16.7872 14.1307 16.5886 13.5032C16.136 13.8974 15.85 14.4778 15.85 15.125C15.85 16.3125 16.8126 17.275 18 17.275C19.1874 17.275 20.15 16.3125 20.15 15.125C20.15 14.0081 19.2982 13.09 18.2088 12.9851ZM14.67 9.58083L10.95 10.9328L11.757 12.817L14.67 9.58083Z" fill="#1A1C1F"/>
</g>
<defs>
<clipPath id="clip0_2214_6644">
<rect width="24" height="24" fill="white"/>
</clipPath>
</defs>
</svg>

<svg xmlns="http://www.w3.org/2000/svg" width="24" height="24" fill="none"><g clip-path="url(#a)"><path fill="#1A1C1F" fill-rule="evenodd" d="M17.843 5.763c.057.43-.176.867-.73.955q-.435.06-.87.115l1.424 4.456q.164-.014.333-.014a3.85 3.85 0 1 1-1.953.531l-.286-.897-3.368 3.744a1.1 1.1 0 0 1-1.775-.195l-.999-2.312-.55.653a3.85 3.85 0 1 1-1.3-1.095l1.1-1.308-1.144-2.671H7a.85.85 0 0 1-.85-.85c0-.433.334-.85.85-.85q1.25-.003 2.5 0a.85.85 0 0 1 .073 1.695q.345.812.706 1.649l4.471-1.626-.434-1.36a.846.846 0 0 1 .698-1.1q.936-.13 1.874-.25a.85.85 0 0 1 .955.73M6 12.975a2.15 2.15 0 1 0 1.922 1.186L6.65 15.673a.86.86 0 0 1-1.197.102c-.33-.277-.436-.82-.103-1.197q.633-.759 1.27-1.512a2.2 2.2 0 0 0-.62-.091m12.209.01.6 1.882a.85.85 0 0 1-.55 1.068.855.855 0 0 1-1.069-.551q-.303-.94-.601-1.88a2.15 2.15 0 1 0 1.62-.518M14.67 9.581l-3.72 1.352.807 1.884z" clip-rule="evenodd"/></g><defs><clipPath id="a"><path fill="#fff" d="M0 0h24v24H0z"/></clipPath></defs></svg>
